public/images/icon-3.svg

<svg fill="none" height="32" viewBox="0 0 32 32" width="32" xmlns="http://www.w3.org/2000/svg"><g fill="#5e6b7e"><path clip-rule="evenodd" d="m22.6804 16c0-1.2526-.3447-2.4247-.9445-3.4265l9.8398-9.83985c.2343-.23431.2343-.61421 0-.84853l-1.4608-1.460858c-.2343-.234314-.6142-.234314-.8486 0l-9.8398 9.839838c-1.0019-.59974-2.1739-.94447-3.4265-.94447s-2.4246.34474-3.4265.94447l-9.83984-9.839766c-.23432-.234314-.61421-.234314-.84853 0l-1.460864 1.460866c-.234316.23431-.234316.61421 0 .84853l9.839834 9.83977c-.59976 1.0019-.9445 2.1739-.9445 3.4265s.34473 2.4247.9445 3.4265l-9.839824 9.8398c-.234316.2343-.234316.6142-.000001.8485l1.460865 1.4609c.23432.2343.61422.2343.84853 0l9.83983-9.8398c1.0018.5998 2.1739.9445 3.4265.9445s2.4246-.3447 3.4265-.9445l9.8398 9.8398c.2344.2344.6143.2344.8486 0l1.4608-1.4608c.2343-.2343.2343-.6142 0-.8486l-9.8398-9.8398c.5998-1.0018.9445-2.1739.9445-3.4265zm-6.6804 3.7113c2.0497 0 3.7114-1.6616 3.7114-3.7113s-1.6617-3.7113-3.7114-3.7113-3.7113 1.6616-3.7113 3.7113 1.6616 3.7113 3.7113 3.7113z" fill-rule="evenodd"/><path d="m17.2557 4.86604c.3314 0 .6-.26863.6-.6v-3.25359c0-.331371-.2686-.6-.6-.6h-2.5114c-.3313 0-.6.268628-.6.6v3.25359c0 .33137.2687.6.6.6z"/><path d="m17.2557 27.134c.3314 0 .6.2686.6.6v3.2536c0 .3314-.2686.6-.6.6h-2.5114c-.3313 0-.6-.2686-.6-.6v-3.2536c0-.3314.2687-.6.6-.6z"/><path d="m27.134 14.7444c0-.3314.2687-.6.6-.6h3.2536c.3314 0 .6.2686.6.6v2.5113c0 .3314-.2686.6-.6.6h-3.2536c-.3313 0-.6-.2686-.6-.6z"/><path d="m4.866 14.7444c0-.3314-.26863-.6-.6-.6h-3.25361c-.331372 0-.600001.2686-.600001.6v2.5113c0 .3314.268628.6.600001.6h3.25361c.33137 0 .6-.2686.6-.6z"/></g></svg>

<svg width="32" height="32" viewBox="0 0 32 32" fill="none" xmlns="http://www.w3.org/2000/svg">
<path fill-rule="evenodd" clip-rule="evenodd" d="M22.6804 16C22.6804 14.7474 22.3357 13.5753 21.7359 12.5735L31.5757 2.73365C31.81 2.49934 31.81 2.11944 31.5757 1.88512L30.1149 0.424262C29.8806 0.189948 29.5007 0.189948 29.2663 0.424262L19.4265 10.2641C18.4246 9.66436 17.2526 9.31963 16 9.31963C14.7474 9.31963 13.5754 9.66437 12.5735 10.2641L2.73366 0.424334C2.49934 0.19002 2.11945 0.19002 1.88513 0.424334L0.424266 1.8852C0.18995 2.11951 0.18995 2.49941 0.424266 2.73373L10.2641 12.5735C9.66434 13.5754 9.3196 14.7474 9.3196 16C9.3196 17.2526 9.66433 18.4247 10.2641 19.4265L0.424276 29.2663C0.18996 29.5006 0.18996 29.8805 0.424275 30.1148L1.88514 31.5757C2.11946 31.81 2.49936 31.81 2.73367 31.5757L12.5735 21.7359C13.5753 22.3357 14.7474 22.6804 16 22.6804C17.2526 22.6804 18.4246 22.3357 19.4265 21.7359L29.2663 31.5757C29.5007 31.8101 29.8806 31.8101 30.1149 31.5757L31.5757 30.1149C31.81 29.8806 31.81 29.5007 31.5757 29.2663L21.7359 19.4265C22.3357 18.4247 22.6804 17.2526 22.6804 16ZM16 19.7113C18.0497 19.7113 19.7114 18.0497 19.7114 16C19.7114 13.9503 18.0497 12.2887 16 12.2887C13.9503 12.2887 12.2887 13.9503 12.2887 16C12.2887 18.0497 13.9503 19.7113 16 19.7113Z" fill="#5E6B7E"/>
<path d="M17.2557 4.86604C17.5871 4.86604 17.8557 4.59741 17.8557 4.26604V1.01245C17.8557 0.681079 17.5871 0.41245 17.2557 0.41245L14.7443 0.41245C14.413 0.41245 14.1443 0.681078 14.1443 1.01245V4.26604C14.1443 4.59741 14.413 4.86604 14.7443 4.86604H17.2557Z" fill="#5E6B7E"/>
<path d="M17.2557 27.134C17.5871 27.134 17.8557 27.4026 17.8557 27.734V30.9876C17.8557 31.319 17.5871 31.5876 17.2557 31.5876H14.7443C14.413 31.5876 14.1443 31.319 14.1443 30.9876V27.734C14.1443 27.4026 14.413 27.134 14.7443 27.134H17.2557Z" fill="#5E6B7E"/>
<path d="M27.134 14.7444C27.134 14.413 27.4027 14.1444 27.734 14.1444H30.9876C31.319 14.1444 31.5876 14.413 31.5876 14.7444V17.2557C31.5876 17.5871 31.319 17.8557 30.9876 17.8557H27.734C27.4027 17.8557 27.134 17.5871 27.134 17.2557V14.7444Z" fill="#5E6B7E"/>
<path d="M4.866 14.7444C4.866 14.413 4.59737 14.1444 4.266 14.1444H1.01239C0.681018 14.1444 0.412389 14.413 0.412389 14.7444L0.412389 17.2557C0.412389 17.5871 0.681017 17.8557 1.01239 17.8557H4.266C4.59737 17.8557 4.866 17.5871 4.866 17.2557V14.7444Z" fill="#5E6B7E"/>
</svg>
